img/cd-arrow-bottom.svg

<svg enable-background="new 0 0 38 44" height="44" viewBox="0 0 38 44" width="38" xmlns="http://www.w3.org/2000/svg"><g clip-rule="evenodd" fill-rule="evenodd"><path d="m37.3 22.2c-.5-.3-1.2-.1-1.4.4l-16.9 18.9-16.9-18.9c-.3-.5-.9-.6-1.4-.4-.5.3-.7.9-.4 1.3l17.7 19.9c.2.3.6.5 1 .5s.8-.2 1-.5l17.7-19.8c.3-.5.1-1.1-.4-1.4z" fill="#686470"/><path d="m18 21.4c.2.3.6.5 1 .5s.8-.2 1-.5l17.7-19.8c.3-.5.1-1.1-.4-1.3-.5-.3-1.2-.1-1.4.4l-16.9 18.8-16.9-18.9c-.3-.5-.9-.6-1.4-.4-.5.3-.7.9-.4 1.4z" fill="#4b4854"/></g></svg>

<?xml version="1.0" encoding="utf-8"?>
<!-- Generator: Adobe Illustrator 18.0.0, SVG Export Plug-In . SVG Version: 6.00 Build 0)  -->
<!DOCTYPE svg PUBLIC "-//W3C//DTD SVG 1.1//EN" "http://www.w3.org/Graphics/SVG/1.1/DTD/svg11.dtd">
<svg version="1.1" id="Layer_1" xmlns="http://www.w3.org/2000/svg" xmlns:xlink="http://www.w3.org/1999/xlink" x="0px" y="0px"
	 width="38px" height="44px" viewBox="0 0 38 44" enable-background="new 0 0 38 44" xml:space="preserve">
<g>
	<path fill-rule="evenodd" clip-rule="evenodd" fill="#686470" d="M37.3,22.2c-0.5-0.3-1.2-0.1-1.4,0.4L19,41.5L2.1,22.6
		c-0.3-0.5-0.9-0.6-1.4-0.4c-0.5,0.3-0.7,0.9-0.4,1.3L18,43.4c0.2,0.3,0.6,0.5,1,0.5c0.4,0,0.8-0.2,1-0.5l17.7-19.8
		C38,23.1,37.8,22.5,37.3,22.2z"/>
	<path fill-rule="evenodd" clip-rule="evenodd" fill="#4B4854" d="M18,21.4c0.2,0.3,0.6,0.5,1,0.5c0.4,0,0.8-0.2,1-0.5L37.7,1.6
		c0.3-0.5,0.1-1.1-0.4-1.3c-0.5-0.3-1.2-0.1-1.4,0.4L19,19.5L2.1,0.6C1.8,0.1,1.2,0,0.7,0.2C0.2,0.5,0,1.1,0.3,1.6L18,21.4z"/>
</g>
</svg>
